X:109
T:Soldier's Joy
C:Old-Time, Bluegrass
M:4/4
K:C
L:1/8
EF |: "C" GECE GECE | G2 cB c2 EF | GECE GECE | "G" F2 D2 D2 EF |
"C" GECE GECE | G2 cB c2 cd | egec "G" dfdB |1 "C" c6 EF :|2 "C" c6 cd ||
|: "C" edef gage | "Dm" dcBc "G" defd | "C" edef gage | "G" dcBA G2 cd |
"C" edef gage "Dm" dcBc "G" defd | "C" egec "G" dfdB |1 "C" c6 ce :|2 "C" c6 |]

